Yosa-Max-Dark/actions/22x22/hide_table_column.svg

<?xml version="1.0" encoding="UTF-8"?>
<svg id="svg4" version="1.1" viewBox="0 0 22 22" xmlns="http://www.w3.org/2000/svg">
 <defs id="defs8">
  <style id="current-color-scheme" type="text/css">.ColorScheme-Text {
        color:#dfdfdf;
      }</style>
 </defs>
 <path id="path902" d="m10.999051 6.1458974c-3.6650996 0.0054754-7.0481704 1.9800484-8.8549446 5.1688616l-0.1441062 0.254082 0.1573791 0.2446c0.2267688 0.357019 0.5438195 0.642723 0.9120404 0.838091l0.4266302 0.227538 0.2294321-0.426631c0.8597727-1.609664 2.2380054-2.7930083 3.8358787-3.5343939-0.546368 0.7293888-0.9310018 1.5889949-0.9310017 2.5673649 0 2.407012 1.9616805 4.368693 4.368692 4.368693 2.407013 0 4.368692-1.961681 4.368692-4.368693-6.68e-4 -0.960988-0.364728-1.8205821-0.898766-2.5465076 1.584256 0.7427527 2.948467 1.9222616 3.801748 3.5154326l0.227535 0.424735 0.428528-0.225641c0.37258-0.197044 0.69228-0.486857 0.919625-0.847573l0.153587-0.2446-0.142211-0.252187c-1.809012-3.1877447-5.193455-5.160348-8.858738-5.1631716zm-0.01327 2.8631622a2.4637426 2.4637426 0 0 1 2.463079 2.4630774 2.4637426 2.4637426 0 0 1-2.463079 2.463079 2.4637426 2.4637426 0 0 1-2.4630774-2.463079 2.4637426 2.4637426 0 0 1 2.4630774-2.4630774z" style="color-rendering:auto;color:#dfdfdf;dominant-baseline:auto;fill:#dfdfdf;font-feature-settings:normal;font-variant-alternates:normal;font-variant-caps:normal;font-variant-ligatures:normal;font-variant-numeric:normal;font-variant-position:normal;image-rendering:auto;isolation:auto;mix-blend-mode:normal;shape-padding:0;shape-rendering:auto;solid-color:#000000;text-decoration-color:#000000;text-decoration-line:none;text-decoration-style:solid;text-indent:0;text-orientation:mixed;text-transform:none;white-space:normal"/>
 <path id="path909" d="m10.217612 10.185009a1.5463599 1.5463599 0 0 0-0.5658624 2.111828 1.5463599 1.5463599 0 0 0 0.183199 0.252824 0.84477066 0.84477066 0 0 1 0.4224724-0.751432 0.84477066 0.84477066 0 0 1 1.154435 0.309329 0.84477066 0.84477066 0 0 1-0.04771 0.915208 1.5463599 1.5463599 0 0 0 0.399423-0.160072 1.5463599 1.5463599 0 0 0 0.567331-2.112676 1.5463599 1.5463599 0 0 0-2.113296-0.565014z" style="fill:#dfdfdf"/>
 <path id="path829" d="m15.394784 2.1608496-0.229129 0.3968621-9.3014102 16.107915 4.758e-4 0.0018-0.4696728 0.810897 4.758e-4 0.0018 1.7315378 0.998203 0.469216-0.812706 9.3009716-16.109755 0.229129-0.396862z" style="color-rendering:auto;color:#000000;dominant-baseline:auto;fill:#dfdfdf;font-feature-settings:normal;font-variant-alternates:normal;font-variant-caps:normal;font-variant-ligatures:normal;font-variant-numeric:normal;font-variant-position:normal;image-rendering:auto;isolation:auto;mix-blend-mode:normal;shape-padding:0;shape-rendering:auto;solid-color:#000000;text-decoration-color:#000000;text-decoration-line:none;text-decoration-style:solid;text-indent:0;text-orientation:mixed;text-transform:none;white-space:normal"/>
</svg>

<?xml version="1.0" encoding="UTF-8" standalone="no"?>
<svg
   xmlns:dc="http://purl.org/dc/elements/1.1/"
   xmlns:cc="http://creativecommons.org/ns#"
   xmlns:rdf="http://www.w3.org/1999/02/22-rdf-syntax-ns#"
   xmlns:svg="http://www.w3.org/2000/svg"
   xmlns="http://www.w3.org/2000/svg"
   viewBox="0 0 22 22"
   version="1.1"
   id="svg4">
  <metadata
     id="metadata10">
    <rdf:RDF>
      <cc:Work
         rdf:about="">
        <dc:format>image/svg+xml</dc:format>
        <dc:type
           rdf:resource="http://purl.org/dc/dcmitype/StillImage" />
        <dc:title></dc:title>
      </cc:Work>
    </rdf:RDF>
  </metadata>
  <defs
     id="defs8">
    <style
       id="current-color-scheme"
       type="text/css">
      .ColorScheme-Text {
        color:#dfdfdf;
      }
      </style>
  </defs>
  <path
     style="color:#dfdfdf;font-style:normal;font-variant:normal;font-weight:normal;font-stretch:normal;font-size:medium;line-height:normal;font-family:sans-serif;font-variant-ligatures:normal;font-variant-position:normal;font-variant-caps:normal;font-variant-numeric:normal;font-variant-alternates:normal;font-feature-settings:normal;text-indent:0;text-align:start;text-decoration:none;text-decoration-line:none;text-decoration-style:solid;text-decoration-color:#000000;letter-spacing:normal;word-spacing:normal;text-transform:none;writing-mode:lr-tb;direction:ltr;text-orientation:mixed;dominant-baseline:auto;baseline-shift:baseline;text-anchor:start;white-space:normal;shape-padding:0;clip-rule:nonzero;display:inline;overflow:visible;visibility:visible;opacity:1;isolation:auto;mix-blend-mode:normal;color-interpolation:sRGB;color-interpolation-filters:linearRGB;solid-color:#000000;solid-opacity:1;vector-effect:none;fill:#dfdfdf;fill-opacity:1;fill-rule:nonzero;stroke:none;stroke-width:0.97082049;stroke-linecap:butt;stroke-linejoin:miter;stroke-miterlimit:4;stroke-dasharray:none;stroke-dashoffset:0;stroke-opacity:1;color-rendering:auto;image-rendering:auto;shape-rendering:auto;text-rendering:auto;enable-background:accumulate"
     d="M 10.999051,6.1458974 C 7.3339514,6.1513728 3.9508806,8.1259458 2.1441064,11.314759 l -0.1441062,0.254082 0.1573791,0.2446 c 0.2267688,0.357019 0.5438195,0.642723 0.9120404,0.838091 L 3.4960499,12.87907 3.725482,12.452439 C 4.5852547,10.842775 5.9634874,9.6594307 7.5613607,8.9180451 7.0149927,9.6474339 6.6303589,10.50704 6.630359,11.48541 c 0,2.407012 1.9616805,4.368693 4.368692,4.368693 2.407013,0 4.368692,-1.961681 4.368692,-4.368693 -6.68e-4,-0.960988 -0.364728,-1.8205821 -0.898766,-2.5465076 1.584256,0.7427527 2.948467,1.9222616 3.801748,3.5154326 l 0.227535,0.424735 0.428528,-0.225641 c 0.37258,-0.197044 0.69228,-0.486857 0.919625,-0.847573 L 20,11.561256 19.857789,11.309069 C 18.048777,8.1213243 14.664334,6.148721 10.999051,6.1458974 Z m -0.01327,2.8631622 A 2.4637426,2.4637426 0 0 1 13.44886,11.472137 2.4637426,2.4637426 0 0 1 10.985781,13.935216 2.4637426,2.4637426 0 0 1 8.5227036,11.472137 2.4637426,2.4637426 0 0 1 10.985781,9.0090596 Z"
     id="path902" />
  <path
     style="opacity:1;fill:#dfdfdf;fill-opacity:1;stroke:none;stroke-width:0.72182429;stroke-miterlimit:4;stroke-dasharray:none;stroke-opacity:1"
     d="m 10.217612,10.185009 a 1.5463599,1.5463599 0 0 0 -0.5658624,2.111828 1.5463599,1.5463599 0 0 0 0.183199,0.252824 0.84477066,0.84477066 0 0 1 0.4224724,-0.751432 0.84477066,0.84477066 0 0 1 1.154435,0.309329 0.84477066,0.84477066 0 0 1 -0.04771,0.915208 1.5463599,1.5463599 0 0 0 0.399423,-0.160072 1.5463599,1.5463599 0 0 0 0.567331,-2.112676 1.5463599,1.5463599 0 0 0 -2.113296,-0.565014 z"
     id="path909" />
  <path
     id="path829"
     d="m 15.394784,2.1608496 -0.229129,0.3968621 -9.3014102,16.1079153 4.758e-4,0.0018 -0.4696728,0.810897 4.758e-4,0.0018 1.7315378,0.998203 0.469216,-0.812706 9.3009716,-16.109755 0.229129,-0.396862 z"
     style="color:#000000;font-style:normal;font-variant:normal;font-weight:normal;font-stretch:normal;font-size:medium;line-height:normal;font-family:sans-serif;font-variant-ligatures:normal;font-variant-position:normal;font-variant-caps:normal;font-variant-numeric:normal;font-variant-alternates:normal;font-feature-settings:normal;text-indent:0;text-align:start;text-decoration:none;text-decoration-line:none;text-decoration-style:solid;text-decoration-color:#000000;letter-spacing:normal;word-spacing:normal;text-transform:none;writing-mode:lr-tb;direction:ltr;text-orientation:mixed;dominant-baseline:auto;baseline-shift:baseline;text-anchor:start;white-space:normal;shape-padding:0;clip-rule:nonzero;display:inline;overflow:visible;visibility:visible;opacity:1;isolation:auto;mix-blend-mode:normal;color-interpolation:sRGB;color-interpolation-filters:linearRGB;solid-color:#000000;solid-opacity:1;vector-effect:none;fill:#dfdfdf;fill-opacity:1;fill-rule:nonzero;stroke:none;stroke-width:0.96837246;stroke-linecap:butt;stroke-linejoin:miter;stroke-miterlimit:4;stroke-dasharray:none;stroke-dashoffset:0;stroke-opacity:1;color-rendering:auto;image-rendering:auto;shape-rendering:auto;text-rendering:auto;enable-background:accumulate" />
</svg>
